X:1
T:Title
%%score { ( 1 3 ) | ( 2 4 ) }
L:1/8
Q:1/4=100
M:4/4
K:D
V:1 treble nm="Grand Piano"
V:3 treble 
V:2 bass 
V:4 bass 
V:1
 F2 F>[EG] [FA]2 [FA]>[FA] | [GB]2 [GB]2 [FA]4 | [Fd]2 [Ge]>[Fd] [FA]2 [GB]>[FA] | F2 ED [CE]4 | %4
w: John~R.~Sweney * * * * *||||
 F2 F>E DDF[EG] | [FA]2 [FA]>[GB] [FA]3 [Fd] | c2 E>E ^G2 c>B | A8 | z4 [Fd]4 | [Ac]B B>^A B4 | %10
w: ||||||
 E2 E2 [CA]2 [CA][EG] | [EG]F =F2 ^F4 | [FA]2 [FA]>[FA] [FA] [Fd]2 [Ac] | B2 B>B B e2 d | %14
w: ||||
 c2 c2 c2 [GB]>[Gc] |[M:3/4] [Fd]6 |] %16
w: ||
V:2
 [D,D]2 [D,D]>[D,D] [D,D]2 [D,D]>[D,D] | [G,D]2 [G,D]2 [D,D]4 | %2
 [D,A,]2 [D,A,]>[D,A,] [D,D]2 [D,D]>[D,D] | [D,A,D]2 [D,G,D][D,F,] [A,,A,]4 | %4
 [D,A,D]2 [D,A,D]>[D,G,A,] [D,F,A,][D,F,A,][D,A,D][D,A,] | [D,D]2 [D,D]>[D,D] [D,D]3 [D,A,] | %6
 [E,A,E]2 [E,A,C]>[E,A,C] [E,B,D]2 [E,A,E]>[E,DE] | E4 z4 | z4 A,2 z2 | z G [G,DG]>[G,DG] [G,DG]4 | %10
 [A,C]2 [A,C]2 [A,,E,]2 [A,,E,][A,,A,] | [D,A,][D,A,D] [D,^G,D]2 [D,A,D]4 | %12
 [D,D]2 [D,D]>[D,D] [D,D] [D,A,]2 [F,D] | [G,DG]2 [G,DG]>[G,DG] [G,DG] [G,B,G]2 [G,B,G] | %14
 [A,G]2 [A,G]2 [A,G]2[K:bass] [A,,A,]>[A,,A,] |[M:3/4] [D,A,]6 |] %16
V:3
 x8 | x8 | x8 | x8 | x8 | x8 | x8 | z4 G4 | [FA]2 [FA]2 z2 D2 | x8 | x8 | x8 | x8 | x8 | x8 | %15
[M:3/4] x6 |] %16
V:4
 x8 | x8 | x8 | x8 | x8 | x8 | x8 | [A,C]8 | [D,D]2 [D,D]2 D,4 | [G,D]2 z2 z4 | x8 | x8 | x8 | x8 | %14
 x6[K:bass] x2 |[M:3/4] x6 |] %16

